gallery-images/shape1.svg

<svg width="315" height="330" viewBox="0 0 315 330" fill="none" xmlns="http://www.w3.org/2000/svg">
<g clip-path="url(#clip0)">
<path fill-rule="evenodd" clip-rule="evenodd" d="M-191.895 315.393L47.1075 554.395L433.895 167.607L194.893 -71.3948L-191.895 315.393Z" stroke="#231F20" stroke-width="0.01"/>
<path d="M314.747 48.4597L-72.0401 435.247" stroke="#231F20" stroke-width="0.01"/>
<path d="M-71.8594 435.428C-55.8567 419.425 -43.984 419.774 -36.1224 418.312C-23.4524 415.529 -11.1343 415.537 1.6571 417.826C15.8115 420.378 28.1991 426.27 41.4642 431.39C51.7275 435.341 62.4219 437.104 72.7843 432.512C74.5135 431.727 76.1903 430.837 77.8014 429.829C88.7127 423.061 86.6817 403.954 88.7071 395.451C93.4897 375.43 98.7023 351.728 108.518 333.441C120.664 310.857 148.665 306.696 170.307 297.905C203.95 284.22 204.117 260.397 220.543 230.936C228.239 217.13 236.602 201.397 247.47 188.667C253.886 181.176 271.098 170.415 257.49 161.548C240.21 150.292 219.361 168.991 208.348 180.948C190.108 200.815 187.026 217.351 155.36 208.89C138.531 204.397 111.999 230.299 100.212 239.438C67.8218 264.537 41.1865 292.536 20.9514 328.114C18.1373 333.052 -11.0704 393.784 -16.1302 391.553C-22.8154 388.613 2.90381 343.172 4.34188 338.14C6.04148 332.297 6.5746 326.178 7.09467 320.124C10.3068 283.735 19.2491 252.632 33.641 218.99C41.3734 200.924 68.2632 181.115 71.5598 172.783C74.0977 166.39 78.3621 155.071 76.18 145.11C73.8007 134.192 64.7702 131.762 69.6891 119.552C72.8943 111.521 80.4965 114.095 85.5029 114.885C90.5224 115.687 92.8885 126.487 94.7251 129.423C96.5486 132.347 97.654 139.162 98.1803 142.307C98.7066 145.479 93.4537 167.622 95.0269 168.671C96.6132 169.734 102.416 165.531 104.537 163.41C110.6 157.189 119.5 140.841 119.452 128.117C119.407 119.507 115.407 115.508 112.286 112.308C104.799 104.611 94.9583 106.19 96.5462 90.1772C97.2231 83.4421 101.86 80.8243 104.914 81.7568C120.092 86.4323 133.503 94.6578 135.485 98.6821C137.453 102.615 149.871 114.011 143.484 126.22C138.616 135.547 135.431 154.493 137.335 160.169C138.386 163.315 138.529 162.804 140.834 161.023C143.113 159.269 148.687 126.289 151.225 120.551C161.653 97.1405 120.864 64.8368 147.376 48.4482C152.72 45.1233 160.877 53.2797 162.819 57.4744C164.735 61.6691 170.794 69.3 174.886 73.3913C184.983 83.5147 182.759 108.949 187.42 122.095C190.23 129.986 173.947 157.494 170.348 164.083C166.774 170.672 169.121 171.5 175.239 168.948C216.309 151.849 210.84 86.6379 239.401 58.0767C244.744 52.7338 249.487 51.2693 257.065 56.7783C272.811 68.229 250.098 102.613 245.848 115.413C243.965 121.046 243.699 134.766 239.928 139.062C236.183 143.358 274.492 112.654 285.271 84.9062C290.883 70.4821 298.271 65.2978 314.928 48.6404" stroke="#231F20"/>
</g>
<defs>
<clipPath id="clip0">
<rect width="315" height="330" fill="white"/>
</clipPath>
</defs>
</svg>

<svg id="Layer_1" data-name="Layer 1" xmlns="http://www.w3.org/2000/svg" xmlns:xlink="http://www.w3.org/1999/xlink" viewBox="0 0 387.495 388.611"><defs><style>.cls-1,.cls-3{fill:none;}.cls-2{clip-path:url(#clip-path);}.cls-3{stroke:#231f20;}</style><clipPath id="clip-path" transform="translate(72.213 -47.171)"><rect class="cls-1" width="315" height="330"/></clipPath></defs><g class="cls-2"><path class="cls-3" d="M-71.859,435.428c16-16,27.875-15.654,35.737-17.116a94.745,94.745,0,0,1,37.779-.486c14.154,2.552,26.542,8.444,39.807,13.564,10.264,3.951,20.958,5.714,31.32,1.122a42.813,42.813,0,0,0,5.017-2.683c10.912-6.768,8.881-25.875,10.906-34.378,4.783-20.021,10-43.723,19.811-62.01,12.146-22.584,40.147-26.745,61.789-35.536,33.643-13.685,33.81-37.508,50.236-66.969,7.7-13.806,16.059-29.539,26.927-42.269,6.416-7.491,23.628-18.252,10.02-27.119-17.28-11.256-38.129,7.443-49.142,19.4-18.24,19.867-21.322,36.4-52.988,27.942C138.531,204.4,112,230.3,100.212,239.438c-32.39,25.1-59.025,53.1-79.261,88.676-2.814,4.938-32.021,65.67-37.081,63.439-6.685-2.94,19.034-48.381,20.472-53.413,1.7-5.843,2.233-11.962,2.753-18.016,3.212-36.389,12.154-67.492,26.546-101.134,7.732-18.066,34.622-37.875,37.919-46.207,2.538-6.393,6.8-17.712,4.62-27.673-2.379-10.918-11.41-13.348-6.491-25.558,3.205-8.031,10.807-5.457,15.814-4.667s7.385,11.6,9.222,14.538,2.929,9.739,3.455,12.884c.527,3.172-4.726,25.315-3.153,26.364s7.389-3.14,9.51-5.261c6.063-6.221,14.963-22.569,14.915-35.293-.045-8.61-4.045-12.609-7.166-15.809-7.487-7.7-17.328-6.118-15.74-22.131.677-6.735,5.314-9.353,8.368-8.42,15.178,4.675,28.589,12.9,30.571,16.925,1.968,3.933,14.386,15.329,8,27.538-4.868,9.327-8.053,28.273-6.149,33.949,1.051,3.146,1.194,2.635,3.5.854,2.279-1.754,7.853-34.734,10.391-40.472,10.428-23.41-30.361-55.714-3.849-72.1,5.344-3.325,13.5,4.832,15.443,9.026,1.916,4.2,7.975,11.826,12.067,15.917,10.1,10.124,7.873,35.558,12.534,48.7,2.81,7.891-13.473,35.4-17.072,41.988-3.574,6.589-1.227,7.417,4.891,4.865,41.07-17.1,35.6-82.31,64.162-110.871,5.343-5.343,10.086-6.808,17.664-1.3,15.746,11.451-6.967,45.835-11.217,58.635-1.883,5.633-2.149,19.353-5.92,23.649-3.745,4.3,34.564-26.408,45.343-54.156,5.612-14.424,13-19.608,29.657-36.266" transform="translate(72.213 -47.171)"/></g></svg>
